X:56
T:Demasiado Corazn
T:(Too Much Heart)
R:air
C: 1988, 2010 L.E. McCullough  
M:C
L:1/8
K:G
|:BAAG-G2 EF|G6 Bd|eg-g4 ed|e/d/B-B4 Bd|
eg-g4 d2|B/A/G-G4 AB|c3B A3G|E/G/-G-G4 AB|
[1 c3d B3A|B/A/-A-A4z E/G/:|[2 c3B A3G|E/D/-D-D4z G/A/|]
Bd-d4 fg/a/|g4-gz g/a/(3g/f/g/|a4-a a2 g/f/|e4-ez ed|
eg-g4 ga/b/|g6z a/b/|c'3b a3g|a/b/-b-b4z a/b/|
c'3b a3g|b/a/-a-a4z b/a/|g/f/e/d/ e3g e2-|e3g a3g|
eg e3d B/A/G-|G6 AB|c3B A3G|
E/G/-G-G4 AB|c3d e3d|B/A/-A-A6|]
 

